!!!OTL: 158. Freylekhs
!!!Genre:	Freylekhs
!!!Mode:	Major
!!!Listening/dance:	dance
!!!One_Mode:	no
**kern
*I"P1
*clefG2
*k[f#]
*G:
*M2/4
*>A
=1
4.bt
8g
=2
4.bt
8g
=3
8btL
8gJ
8btL
8gJ
=4
8btL
8gJ
4b
=5
16ddLL
16cc
16b
16aJJ
8bL
8gJ
=6
16ddLL
16cc
16b
16aJJ
8bL
8gJ
=7
16ddLL
16cc
16b
16aJJ
16bLL
16cc
16dd
16eeJJ
=8
16ddLL
16cc
16b
16aJJ
8bL
8gJ
=9||
*>B
8r
8g
8bL
8ddJ
=10
8ccL
8b
8aJ
(8qcc/
8bJ)
=11
8r
8g
8bL
8ddJ
=12
8ccL
8aJ
4g
=13
8r
8g
8bL
8ddJ
=14
8ccL
8b
8a
8bJ
=15
8r
8g
8bL
8ddJ
=16
8ccL
8aJ
4g
*>bM
*C:
=17||
*>C
2gg
=18
8qff#/
2gg
=19
(8qff#/
4gg)
((8qff#/
4gg))
=20
(8qff#/
4gg)
(8qff#/
4gg)
=21
16ggLL
16ffn
16ee
16ddJJ
8eeL
8ccJ
=22
16ggLL
16ffn
16ee
16ddJJ
8eeL
8ccJ
=23
16ggLL
16ffn
16ee
16ddJJ
16eeLL
16ff
16gg
16aaJJ
=24
16ggLL
16ffn
16ee
16ddJJ
8eeL
8ccJ
*>eM
==
*-
